X:1
T:Title
%%score { 1 | 2 }
L:1/8
Q:1/4=100
M:4/4
K:C
V:1 treble nm="Grand Piano"
V:2 bass 
V:1
 [EG]>[EG] [EG]>[EG] [Ec]2 [CEG]2 | [CEG]>[DF] [DF]>[^CE] [DF]4 | %2
w: W.~J.~King * * * * *||
 [DF]>[DF] [DF]>[DF] [DFB]2 [CFA]2 | [FA]>[EG] [_E^F]>[=EG] [CE]4 | %4
w: ||
 [EG]>[EG] [_E^F]>[=EG] [Ge]2 [Ec]2 | A>A ^G>A [Fd]4 | c>c c>c [DB]2 [Fd]2 |[M:3/4] [Fd]4 [Ec]2 | %8
w: ||||
[M:1/4] [EG]>[EG] |[M:4/4] [Ec]2 [Ec]>[Ec] [Ec]2 (3[CE][DF][EG] | A2 ^G2 A2 D>E | %11
w: |||
 F>E [DF]>[EG] [FB]>[FA] [EG]>[DF] | [CE]6 [EG]>[EG] | [Ec]2 [Ec]2 [Ec]3 [EG] | %14
w: |||
[M:9/8] A>A^G- G/A/ [Fd]2- [Fd]c>A |[M:4/4] G2 c2 [FB]2 [Fd]2 | [Fd]4 [Ec]2 z2 |] %17
w: |||
V:2
 [C,C]>[C,C] [C,C]>[C,C] [C,G,]2 C,2 | G,,>[G,,G,] [G,,G,]>[G,,G,] [G,,G,]4 | %2
 [G,,G,]>[G,,G,] [G,,G,]>[G,,G,] G,,2 G,,2 | [C,C]>[C,C] [C,C]>[C,C] [C,G,]4 | %4
 [C,C]>[C,C] [C,C]>[C,C] [C,C]2 [C,C]2 | [F,CF]>[F,CF] [F,B,F]>[F,A,F] [D,A,]4 | %6
 [G,E]>[G,E] [G,E]>[F,G,E] [G,,G,]2 [G,,G,]2 |[M:3/4] [G,,G,]4 [C,G,]2 |[M:1/4] [C,C]>[C,C] | %9
[M:4/4] [C,G,]2 [C,G,]>[C,G,] [C,G,]2 (3:2:2[C,G,]2 [C,C] | %10
 [F,CF]2 [F,CE]2 [F,CF]2 [F,G,B,]>[E,G,C] | %11
 [D,G,B,]>[C,G,C] [B,,G,]>[A,,G,] [G,,G,]>[G,,G,] [G,,G,]>[G,,G,] | [C,G,]6 [C,C]>[C,C] | %13
 [C,G,]2 [C,G,]2 [C,G,]3 [C,C] | %14
[M:9/8] [F,CF]>[F,CF][F,B,F]- [F,B,F]/[F,A,F]/ [D,A,]2- [D,A,][F,A,F]>[F,CF] | %15
[M:4/4] [G,CE]2 [G,E]2 [G,,G,]2 [G,,G,]2 | [G,,G,]4 [C,G,]2 z2 |] %17

